X:1
T:Iay veu le cerf
T:Iay veu le cerf
T:Pierre de Manchicourt
C:Pierre de Manchicourt
%%score [ 1 [ 2 3 ] 4 ]
L:1/8
Q:1/4=90
M:2/2
K:F
V:1 treble nm="Superius" snm="S"
V:2 treble-8 nm="Tenor 1" snm="T 1"
V:3 treble-8 nm="Tenor 2" snm="T 2"
V:4 bass nm="Bassus" snm="B"
V:1
 F4 c3 c | c2 c2 d2 c2 | A2 c2 B2 A2- | A2 G2 F2 c2- | cB A2 G4 | z2 F2 c4 | z8 | z2 c2 B2 A2 | %8
w: J'ay veu le|cerf du bois sal-|lir et boi- re'à|_ la fon- tai-|* * * ne,|j'ay veu,||et boi- re'à|
 G2 F2 c2 F2 | z4 z2 c2 | B2 A2 G2 F2 | c4 A4 | z2 F2 c3 c | c2 c2 d2 c2- | cB AG A4 | F2 c3 ccc | %16
w: la fon- tai- ne,|et|boi- re'à la fon-|tai- ne,|je bois à|ty, mon bel a-|* * * * my,|je bois à ty, mon|
 d2 c2 AAcc | B2 A4 G2 | A4 F2 c2- | c2 C2 F3 F | FF F2 G2 FF | cccc d2 c2- | %22
w: bel a- my, et à ta|sou- ve- rai-|ne, je bois,|_ je bois à|ty, mon bel a- my, et|à ta sou- ve- rai- *|
"^-natural" c2 B2 cccc | AA B2 c4 | z2 c2 B2 A2 | G2 F3 GAB | c4 A4 | z4 F2 c2- | cccc d2 c2 | %29
w: * * ne, et à ta|sou- ve- rai- ne,|et à ta|sou- ve- * * *|rai- ne,|si tu|_ ne fais ain- si que|
 B2 c2 B2 G2 | A3 G A2 B2 | A4 z4 | F2 c3 ccc | d2 c2 A2 c2 | B2 A2 G2 F2 | c3 B A2 G2- | %36
w: my, tu pai- ras|pin- te plai- *|ne,|si tu ne fais ain-|si que my tu|pai- ras pin- te|plai- * * *|
 G2 F4 E2 | F2 A2 G4 | F2 c3 ccc | d2 c2 A2 c2 | B2 A4 G2 | F2 c4 BA | G4 z2 F2 | c4 z4 | %44
w: |ne, j'ay veu|le cerf du bois sal-|lir et boi- re'à|la fon- *|* tai- * *|ne, j'ay|veu,|
 z4 z2 c2 | B2 A2 G2 F2 | c2 F2 z4 | z2 c2 B2 A2 | G2 F2 c4 | A2 B2 c4 | z2 c2 B2 A2 | G2 F2 c3 B | %52
w: et|boi- re'à la fon-|tai- ne,|et boi- re'à|la fon- tai-|* * ne,|et boi- re'à|la fon- tai- *|
 AG F4 E2 | F8 |] %54
w: |ne.|
V:2
 z8 | c4 f3 f | f2 f2 g2 f2 | df e2 d2 cd | ec f4 e2 | f4 z4 | z8 | f2 e2 d2 c2 | Bc dc/d/ e2 d2 | %9
w: |J'ay veu le|cerf du bois sal-|lir et boi- re'à la _|fon- * tai- *|ne,||et boi- re'à la|fon- * tai- * * * *|
 e3 d e2 f2 | z2 f2 e2 d2 | cd ec de f2 | g2 a2 g2 f2- | f2 e2 dc f2- | f2 e2 f4 | z4 c4 | %16
w: * * * ne,|et boi- re'à|la _ fon- * tai _ _|ne, et boi- re'à|_ la fon- * tai-|* * ne,|Je|
 f3 f f2 f2 | g2 f4 e2 | f4 z2 F2 | cccc d2 c2 | A4 z4 | z2 c2 g3 g | g2 g2 a2 g2 | e2 z2 z2 g2 | %24
w: bois à ty, mon|bel a- *|my, je|bois à ty mon bel a-|my,|je bois à|ty mon bel a-|my, et|
 f2 e2 d2 c2 | e2 d2 c2 f2- | f2 e2 f4- | f4 z4 | c2 f3 fff | g2 f2 df e2 | c4 z2 B2 | f3 f ff g2 | %32
w: à ta sou- ve-|rai- * * *|* * ne,|_|si tu ne fais ain-|si que- my, tu pai-|ras, si|tu ne fais ain- si|
 f2 e2 f4 | d2 e2 f3 c | de fd e2 f2 | g2 c2 f2 e2 | d4 cd ec | de f4 e2 | f4 z2 c2 | f3 f f2 f2 | %40
w: que my tu|pai- ras pin- te|plai- * * * * *|ne, tu pai- *|ras pin- * * *|te _ plai- *|ne, J'ay|veu le cerf du|
 g2 f2 df e2 | d2 cd ec f2- | f2 e2 f4 | z8 | z4 f2 e2 | d2 c2 Bc dc/d/ | e2 d2 e3 d | %47
w: bois sal- lir et boi-|re'à la _ fon- * tai-|* * ne,||et boi-|re'à la fon- * tai- * *||
 e2 f2 z2 f2 | e2 d2 cd ec | d4 z2 g2 | f2 e2 d2 e2- | e2 c3 d e2 | c2 d2 c4 | c8 |] %54
w: * ne, et|boi- re'à la fon- tai- *|ne, et|boi- re'à la fon-|* tai- * *||ne.|
V:3
 z8 | z8 | z8 | z4 F4 | c3 c c2 c2 | d2 c2 A2 c2 | B2 A4 G2 | F2 c2 F2 z2 | z4 c2 B2 | %9
w: |||J'ay|veu le cerf du|bois sal- lir et|boi- re'à la|fon- tai- ne,|et boi-|
 A2 GF c2 F2 | z2 c3 B A2- | A2 G2 F2 c2- | c2 F2 G2 A2 | G4 F4 | z2 C2 F3 F | F8 | z8 | %17
w: re'à la fon- tai- ne,|et boi- re'à|_ la fon- tai-||* ne,|je bois à|ty,||
 z2 F2 c3 c | c2 c2 d2 c2 | A3 c B2 A2 | F4 E2 D2 | A4 G2 C2 | G4 z2 c2- | c2 B2 A2 G2 | %24
w: je bois à|ty mon bel a-|my, et à ta|sou- ve- rai-||ne, et|_ à ta sou-|
 A3 G/A/ B2 c2- | cBAG A4 | G4 F2 c2- | cccc d2 c2 | A2 c2 B2 A2 | G2 A2 B2 c2 | A4 z4 | %31
w: ve- * * * rai-||* ne, si|_ tu ne fais ain- si|que my, tu pai-|ra pin- te plai-|ne,|
 z2 F2 cccc | d2 c2 AAcc | BB A2 F4 | z2 c3 B A2 | G2 F2 c3 B | A2 B2 G4 | F4 z2 C2 | F3 F F4 | %39
w: si tu ne fais ain-|si que my, tu pai- ras|pin- te plai- ne,|tu pai- ra|pin- te plai- *||ne, j'ay|veu le cerf,|
 z8 | z8 | z2 F2 c3 c | c2 c2 d2 c2 | A2 c2 B2 A2- | A2 G2 F2 c2 | F2 z2 z4 | c2 B2 A2 GF | %47
w: ||j'ay veu le|cerf du bais sal-|llr et boi- re'à|_ la fon- tai-|ne,|et boi- re'à la fon-|
 c2 F2 z2 c2- | cB AG A2 c2- | c2 B2 A2 G2 | A3 G/A/ B2 c2- | cB AG F2 G2 | A2 B2 G4 | F8 |] %54
w: tai- ne, et|_ _ _ _ boi- re'à|_ la fon- *|tai- * * ne, et|_ _ _ _ boi- re'à|la fon- tai-|ne.|
V:4
 z8 | z8 | z8 | z8 | z4 z2 C,2 | F,3 F, F,2 F,2 | G,2 F,2 D,F, E,2 | D,2 C,2 D,E, F,E,/F,/ | %8
w: ||||J'ay|veu le cerf du|bois sal- lir et boi-|re'à la fon- * tai- * *|
 G,2 D,2 z4 | C2 B,2 A,4 | G,2 F,2 C2 F,2- | F,2 C,2 z2 F,2 | E,2 D,2 E,2 F,2 | C,4 F,2 F,2 | %14
w: * ne,|et boi- re'à|la fon- tai- *|* ne, et|boi- re'à la fon-|tai- ne, je|
 C3 C C2 C2 | D2 C2 A,3 C | B,2 A,2 F,2 A,2 | G,2 D,2 z2 C,2 | F,F,F,F, B,2 A,2 | F,4 z2 F,2 | %20
w: bois à ty mon|bel a- my et|à ta sou- ve-|rai- ne, et|à ta sou- ve- rai- *|ne, je|
 C3 C CC D2 | C2 A,C B,B,CC | D4 C4 | z2 G,2 F,2 E,2 | D,2 C,2 G,2 C,2- | C,2 D,2 F,4 | %26
w: bois à ty mon- bel|a- my et à ta sou- ve-|rai- ne,|et à ta|sou- ve- rai- *||
 C,2 C,2 F,3 F, | F,2 F,2 B,2 A,2 | F,4 z4 | z4 z2 C,2 | F,3 F, F,F, G,2 | F,2 D,2 F,2 E,2 | %32
w: ne, si tu ne|fais ain- si que|my,|si|tu ne fais ain- si|que my, tu pai-|
 D,2 A,2 F,4 | z2 C3 B, A,2 | G,2 F,2 C2 F,2 | E,2 F,3 E, C,2 | D,2 B,,2 C,2 C,2 | F,F, C3 CCC | %38
w: ras pin- te,|tu pai- ras|pin- te plai- *|||ne, j'ay veu le cef au|
 D2 C2 A,3 C | B,2 A,2 F,2 A,2 | G,2 D,2 z4 | z8 | C,4 F,3 F, | F,2 F,2 G,2 F,2 | %44
w: bois sal- lir et|boi- re'à la fon-|tai- ne,||j'ay veu le|cerf du bois sal-|
 D,F, E,2 D,2 C,2 | D,E, F,E,/F,/ G,2 D,2 | z4 C2 B,2 | A,4 G,2 F,2 | C2 F,4 C,2 | z2 G,2 F,2 E,2 | %50
w: lir et boi- re'à la|fon- * tai- * * * ne,|et boi-|re'à la fon-|tai- * ne,|et boi- re'à|
 D,2 C,2 G,2 C,2- | C,2 F,4 E,2 | F,2 B,,2 C,4 | F,8 |] %54
w: la fon- tai- *|||ne.|

